X: 4
T: Maggie's Pancakes
R: reel
L: 1/8
M: 4/4
K: Bmin
de |f ~B3 fgfe | d ~B3 GBdB | cAAd AAeA | AfAA ecAc |
d ~B3 fgfe | d ~B3 GBdB | cAdA e ~a3 | afec B2 :|
de | f2 dB GBdB | caec d ~B3 | f2 dB GBdB | caec Bcde |
~f3 e fgfe | d ~B3 GBdB | cAdA e ~a3 | afec B2 :|